images/adapt-title-right.svg

<svg width="944" height="180" viewBox="0 0 944 184" fill="none" xmlns="http://www.w3.org/2000/svg">
<path fill-rule="evenodd" clip-rule="evenodd" d="M92.0903 179.935C39.8798 179.935 1 142.532 1 90.8298C1 38.6549 39.6121 1.7243 92.0903 1.7243C144.363 1.7243 182.94 38.69 182.94 90.8298C182.94 142.497 144.096 179.935 92.0903 179.935ZM92.0903 142.238C120.864 142.238 140.37 120.617 140.37 90.8298C140.37 61.1968 120.789 39.4219 92.0903 39.4219C63.4255 39.4219 43.5701 61.1978 43.5701 90.8298C43.5701 120.616 63.3485 142.238 92.0903 142.238ZM336.209 136.671V109.196H282.384V74.6367H376.377V155.76L376.207 155.909C370.121 161.259 360.797 166.87 349.596 171.24C334.978 176.942 318.244 180.177 299.704 180.177C241.382 180.177 203.808 144.549 203.808 89.8641C203.808 37.9718 240.747 1 292.976 1C317.313 1 336.563 7.4395 350.749 18.8556C362.028 27.9327 369.499 39.8054 372.516 51.3499L372.679 51.9764H328.789L328.64 51.801C321.681 43.6445 309.79 37.7319 292.976 37.7319C265.173 37.7319 246.137 59.5801 246.137 89.8641C246.137 122.775 266.663 143.928 300.665 143.928C316.563 143.928 329.534 140.922 336.209 136.671V136.671ZM451.829 39.4219V69.3252H512.623V104.85H451.829V140.548H563.085V177.038H409.979V4.62148H553.713V39.4219H451.829ZM629.165 59.9246V177.038H588.277V4.62148H635.4L715.392 108.674V4.62148H755.319V177.521H721.416L629.165 59.9246ZM857.185 35.3176C838.237 35.3176 827.888 40.9501 827.888 50.9935C827.888 59.9698 835.385 65.2253 850.508 66.9135C853.906 67.2638 857.12 67.5651 860.977 67.9017C861.762 67.9702 862.583 68.041 863.505 68.1199C864.279 68.1861 868.721 68.5629 870.064 68.6782C872.725 68.9065 875.032 69.1096 877.409 69.3268C920.204 72.7773 942.508 89.882 942.508 124.389C942.508 159.443 915.059 180.177 866.316 180.177C839.011 180.177 818.195 173.837 803.412 162.295C791.238 152.791 783.63 140.094 780.285 125.953L780.14 125.337H824.116L824.245 125.644C829.252 137.592 843.597 146.101 866.316 146.101C887.907 146.101 899.217 139.146 899.217 127.286C899.217 115.821 891.843 110.812 874.908 108.951C870.053 108.384 865.938 107.969 860.181 107.444C859.696 107.4 859.19 107.354 858.606 107.301C851.336 106.644 850.901 106.604 847.762 106.296C807.896 102.188 785.078 83.8214 785.078 52.6835C785.078 20.6054 813.291 1.48286 857.185 1.48286C883.232 1.48286 903.01 7.23873 916.957 17.6983C928.411 26.2885 935.471 37.7436 938.41 50.3975L938.552 51.0107H896.548L896.403 50.7648C891.219 41.9764 877.45 35.3176 857.185 35.3176Z" stroke="#14C5C4"/>
</svg>

<svg width="944" height="180" viewBox="0 0 944 184" fill="none" xmlns="http://www.w3.org/2000/svg"><path clip-rule="evenodd" d="M92.09 179.935C39.88 179.935 1 142.532 1 90.83 1 38.655 39.612 1.724 92.09 1.724c52.273 0 90.85 36.966 90.85 89.106 0 51.667-38.844 89.105-90.85 89.105zm0-37.697c28.774 0 48.28-21.621 48.28-51.408 0-29.633-19.581-51.408-48.28-51.408-28.665 0-48.52 21.776-48.52 51.408 0 29.786 19.779 51.408 48.52 51.408zm244.119-5.567v-27.475h-53.825v-34.56h93.993v81.124l-.17.149c-6.086 5.35-15.41 10.961-26.611 15.331-14.618 5.702-31.352 8.937-49.892 8.937-58.322 0-95.896-35.628-95.896-90.313C203.808 37.972 240.747 1 292.976 1c24.337 0 43.587 6.44 57.773 17.856 11.279 9.077 18.75 20.95 21.767 32.494l.163.626h-43.89l-.149-.175c-6.959-8.157-18.85-14.07-35.664-14.07-27.803 0-46.839 21.85-46.839 52.133 0 32.911 20.526 54.064 54.528 54.064 15.898 0 28.869-3.006 35.544-7.257v0zm115.62-97.25v29.904h60.794v35.525h-60.794v35.698h111.256v36.49H409.979V4.621h143.734v34.8H451.829zm177.336 20.504v117.113h-40.888V4.621H635.4l79.992 104.053V4.621h39.927v172.9h-33.903L629.165 59.925zm228.02-24.607c-18.948 0-29.297 5.632-29.297 15.675 0 8.977 7.497 14.232 22.62 15.92 3.398.35 6.612.652 10.469.989l2.528.218 6.559.558c2.661.228 4.968.432 7.345.649 42.795 3.45 65.099 20.555 65.099 55.062 0 35.054-27.449 55.788-76.192 55.788-27.305 0-48.121-6.34-62.904-17.882-12.174-9.504-19.782-22.201-23.127-36.342l-.145-.616h43.976l.129.307c5.007 11.948 19.352 20.457 42.071 20.457 21.591 0 32.901-6.955 32.901-18.815 0-11.465-7.374-16.474-24.309-18.335-4.855-.567-8.97-.982-14.727-1.507l-1.575-.143c-7.27-.657-7.705-.697-10.844-1.005-39.866-4.108-62.684-22.475-62.684-53.613 0-32.078 28.213-51.2 72.107-51.2 26.047 0 45.825 5.756 59.772 16.215 11.454 8.59 18.514 20.046 21.453 32.7l.142.613h-42.004l-.145-.246c-5.184-8.789-18.953-15.447-39.218-15.447z" stroke="#14C5C4"/></svg>
